X:1
T: Bonnie Lass of Bon Accord Variation minore
C:J. Scott Skinner
R:Strathspey
Q:128
K:Am
M:4/4
L:1/16
E4|A6B2 c6B2|A4A,4 C4E4|A2^G2 A2B2 c2A2 d2c2|B8-B4E4|A6B2 c6B2|A4c4 d4f4|efed e2f2 e4 ^G4|A8-A4E4|
A6B2 c6B2|A4A,4 C4E4|A2^G2 A2B2 c2A2 d2c2|B8-B4E4|A6B2 c6B2|A4c4 d4f4|efed e2f2 e4 ^G4|A8-A4 ((3e2^f2^g2)|
a6=g2 f4e4|f4e4 d4c4|c2B2 A2B2 c2A2 d2c2|B8-B4 ((3e2^f2^g2)|a6=g2 f4e4|d2c2 B2c2 d2e2 f2d2|e2d2 e2f2 e2d2 c2B2|A8-A4 ((3e2^f2^g2)|
a6=g2 f4e4|f4e4 d4c4|c2B2 A2B2 c2A2 d2c2|B8-B4^c4|A,2^C2 E2A2 ^c2e2 a2^g2|a2e2 ^c2A2 ^G2A2 E2=G2|^F2D2 F2A2 ^G2^f2 e2^g2|a8-a4||
